X: 3
T:Priest, The
T:Is it the Priest You Want
M:12/8
L:1/8
R:Slide
K:G
g[|edB d2B d2B B2g|edB d2B c2A A2g|!
edB d2B BAB g3|BAB ~g3 B2G G2g||!
edB d2B d2B B2g|edB d2B c2A A2g|!
edB d2B BAB g3|BAB ~g3 B2G G3|]!
gag faf g2e e2d|eaa aga b2e e2f|!
gag faf g2e e2d|BAB ~g3 B2G G3||!
gag faf g2e e2d|eaa aga b2e e2f|!
gag faf g2e e2d|BAB ~g3 B2G G2g|]!
